suite-common/icons/assets/icons/clockClockwise.svg

<svg xmlns="http://www.w3.org/2000/svg" xml:space="preserve" fill="none" viewBox="0 0 24 24">
  <path fill="#000" fill-rule="evenodd" d="M11.1 3.041c-2.069.231-4.055 1.176-5.46 2.6-2.093 2.121-3.013 5.054-2.495 7.959.318 1.785 1.207 3.466 2.536 4.798 1.705 1.708 4.209 2.69 6.599 2.588 1.79-.076 3.456-.626 4.84-1.599.668-.47 1.316-1.063 1.398-1.28a.76.76 0 0 0-.603-1.011c-.258-.036-.46.069-.895.465-2.07 1.884-4.963 2.445-7.62 1.478-1.844-.672-3.353-2.059-4.211-3.874-1.056-2.235-.899-4.981.403-7.077C6.642 6.4 8.176 5.26 10.1 4.74c1.842-.497 3.94-.222 5.616.738.681.389 1.137.773 2.344 1.97l1.16 1.15-1.04.002c-.921.002-1.059.01-1.202.075-.57.259-.596 1.055-.042 1.323.16.078.244.081 2.219.083 2.305.002 2.218.012 2.462-.295l.123-.153V5.327l-.124-.153c-.177-.219-.344-.305-.59-.305-.328 0-.624.207-.707.494-.021.075-.039.591-.039 1.147 0 .555-.014 1.01-.03 1.01-.017 0-.516-.487-1.11-1.083-1.131-1.134-1.459-1.43-2.02-1.824-1.1-.773-2.425-1.295-3.84-1.512-.498-.077-1.729-.111-2.18-.06m.67 3.751c-.138.043-.361.236-.44.38-.064.117-.071.325-.083 2.448-.014 2.496-.005 2.633.184 2.852.067.077.845.549 2.029 1.231 2.19 1.261 2.153 1.241 2.354 1.278.34.064.755-.244.808-.602a.73.73 0 0 0-.196-.638c-.069-.068-.922-.581-1.894-1.141l-1.769-1.017-.011-2.122c-.011-2.029-.015-2.128-.092-2.278a.69.69 0 0 0-.584-.404 1.1 1.1 0 0 0-.306.013"/>
</svg>

<svg xmlns="http://www.w3.org/2000/svg" xml:space="preserve" fill="none" viewBox="0 0 24 24"><path d="M11.100 3.041 C 9.031 3.272,7.045 4.217,5.640 5.641 C 3.547 7.762,2.627 10.695,3.145 13.600 C 3.463 15.385,4.352 17.066,5.681 18.398 C 7.386 20.106,9.890 21.088,12.280 20.986 C 14.070 20.910,15.736 20.360,17.120 19.387 C 17.788 18.917,18.436 18.324,18.518 18.107 C 18.685 17.662,18.385 17.160,17.915 17.096 C 17.657 17.060,17.455 17.165,17.020 17.561 C 14.950 19.445,12.057 20.006,9.400 19.039 C 7.556 18.367,6.047 16.980,5.189 15.165 C 4.133 12.930,4.290 10.184,5.592 8.088 C 6.642 6.400,8.176 5.260,10.100 4.740 C 11.942 4.243,14.040 4.518,15.716 5.478 C 16.397 5.867,16.853 6.251,18.060 7.448 L 19.220 8.598 18.180 8.600 C 17.259 8.602,17.121 8.610,16.978 8.675 C 16.408 8.934,16.382 9.730,16.936 9.998 C 17.096 10.076,17.180 10.079,19.155 10.081 C 21.460 10.083,21.373 10.093,21.617 9.786 L 21.740 9.633 21.740 7.480 L 21.740 5.327 21.616 5.174 C 21.439 4.955,21.272 4.869,21.026 4.869 C 20.698 4.869,20.402 5.076,20.319 5.363 C 20.298 5.438,20.280 5.954,20.280 6.510 C 20.280 7.065,20.266 7.520,20.250 7.520 C 20.233 7.520,19.734 7.033,19.140 6.437 C 18.009 5.303,17.681 5.007,17.120 4.613 C 16.020 3.840,14.695 3.318,13.280 3.101 C 12.782 3.024,11.551 2.990,11.100 3.041 M11.770 6.792 C 11.632 6.835,11.409 7.028,11.330 7.172 C 11.266 7.289,11.259 7.497,11.247 9.620 C 11.233 12.116,11.242 12.253,11.431 12.472 C 11.498 12.549,12.276 13.021,13.460 13.703 C 15.650 14.964,15.613 14.944,15.814 14.981 C 16.154 15.045,16.569 14.737,16.622 14.379 C 16.659 14.134,16.586 13.898,16.426 13.741 C 16.357 13.673,15.504 13.160,14.532 12.600 L 12.763 11.583 12.752 9.461 C 12.741 7.432,12.737 7.333,12.660 7.183 C 12.536 6.939,12.333 6.798,12.076 6.779 C 11.957 6.771,11.819 6.776,11.770 6.792 " stroke="none" fill-rule="evenodd" fill="black"></path></svg>
